src/assets/img/star.svg

<svg width="12" height="11" viewBox="0 0 12 11" fill="none" xmlns="http://www.w3.org/2000/svg">
<path fill-rule="evenodd" clip-rule="evenodd" d="M5.08461 0.600806C5.43198 -0.200268 6.56802 -0.200269 6.91539 0.600805L7.9662 3.02406L10.5956 3.27461C11.4648 3.35743 11.8158 4.43787 11.1613 5.01578L9.18137 6.76399L9.75561 9.34209C9.94543 10.1944 9.02636 10.8621 8.27447 10.4182L6 9.07539L3.72553 10.4182C2.97364 10.8621 2.05457 10.1944 2.24439 9.34209L2.81863 6.76399L0.838693 5.01579C0.184171 4.43787 0.535225 3.35743 1.40444 3.27461L4.0338 3.02406L5.08461 0.600806ZM7.05081 3.421L6 0.997751L4.94919 3.421C4.80462 3.75441 4.49021 3.98284 4.12845 4.01731L1.49908 4.26786L3.47901 6.01606C3.75142 6.25659 3.87152 6.6262 3.79251 6.98091L3.21828 9.55901L5.49275 8.2162C5.80568 8.03145 6.19432 8.03145 6.50725 8.2162L8.78172 9.55901L8.20749 6.98091C8.12848 6.6262 8.24858 6.25659 8.52099 6.01606L10.5009 4.26786L7.87155 4.01731C7.50979 3.98284 7.19538 3.7544 7.05081 3.421Z" fill="#787A80"/>
</svg>

<svg width="12" height="11" fill="none" xmlns="http://www.w3.org/2000/svg"><path fill-rule="evenodd" clip-rule="evenodd" d="M5.085.6c.347-.8 1.483-.8 1.83 0l1.051 2.424 2.63.25c.869.083 1.22 1.164.565 1.742l-1.98 1.748.575 2.578c.19.852-.73 1.52-1.482 1.076L6 9.075l-2.274 1.343c-.752.444-1.671-.224-1.482-1.076l.575-2.578-1.98-1.748c-.655-.578-.304-1.659.565-1.741l2.63-.25L5.084.6ZM7.05 3.422 6 .998 4.95 3.42a.998.998 0 0 1-.822.596l-2.629.25 1.98 1.75c.272.24.393.61.314.964l-.575 2.578 2.275-1.343a.998.998 0 0 1 1.014 0L8.782 9.56l-.575-2.578a.998.998 0 0 1 .314-.965l1.98-1.748-2.63-.25a.998.998 0 0 1-.82-.597Z" fill="#787A80"/></svg>
